brandFactory_export/3.Masa/Historial medico_3Masa.svg

<?xml version="1.0" encoding="UTF-8"?>
<svg width="24px" height="24px" viewBox="0 0 24 24" version="1.1" xmlns="http://www.w3.org/2000/svg" xmlns:xlink="http://www.w3.org/1999/xlink">
    <title>3.Masa/Historial medico_3Masa</title>
    <g id="Symbols" stroke="none" stroke-width="1" fill="none" fill-rule="evenodd">
        <g id="3.Masa/Historial-medico_3Masa" fill="#5CB615" fill-rule="nonzero">
            <path d="M14.1260504,2.61512605 C14.0319328,2.31596639 13.7462185,1.41176471 11.887395,1.41176471 C9.88067227,1.41176471 9.57815126,2.41680672 9.53781513,3.29411765 L9.53109244,3.75798319 C9.54453782,4.07731092 9.55798319,4.54117647 11.887395,4.54117647 C14.2168067,4.54117647 14.2336134,4.07731092 14.2403361,3.80504202 L14.2403361,3.37142857 C14.2369748,3.11596639 14.1966387,2.8605042 14.1260504,2.61512605 Z M18.8252101,1.71764706 C19.8504202,1.71764706 20.7478992,2.45042017 20.7478992,3.28403361 L20.7478992,22.0571429 C20.7478992,22.907563 19.8672269,23.6235294 18.8252101,23.6235294 L4.95294118,23.6235294 C3.91092437,23.6235294 3.0302521,22.9042017 3.0302521,22.0571429 L3.0302521,3.28067227 C3.0302521,2.44705882 3.92773109,1.71428571 4.94957983,1.71428571 L8.49579832,1.71428571 C9.0605042,0.618487395 10.2268908,0 11.887395,0 C13.9109244,0 14.8487395,0.850420168 15.2823529,1.71764706 L18.8252101,1.71764706 Z M17.9478992,13.8521008 L16.0722689,13.8521008 L15.1647059,11.2840336 C15.0672269,11.0151261 14.8084034,10.8403361 14.5226891,10.8436975 C14.2336134,10.8504202 13.9848739,11.0420168 13.9008403,11.3176471 L13.1512605,13.8554622 L12.5159664,13.8554622 C12.2537815,13.8554622 12.0184874,14.0067227 11.9109244,14.2453782 L11.4907563,15.1764706 L10.3411765,9.4487395 C10.2806723,9.15294118 10.0252101,8.93445378 9.72268908,8.9210084 C9.41680672,8.89747899 9.13781513,9.09243697 9.05378151,9.38487395 L7.68235294,13.7915966 L5.82352941,13.7915966 C5.45714286,13.7915966 5.15798319,14.087395 5.15798319,14.4504202 C5.15798319,14.8134454 5.45378151,15.1092437 5.82352941,15.1092437 L8.1697479,15.1092437 C8.45882353,15.1092437 8.71764706,14.9210084 8.80504202,14.6453782 L9.54789916,12.2588235 L10.5966387,17.4621849 C10.6605042,17.7714286 10.9327731,17.9932773 11.2487395,17.9932773 C11.507563,17.9932773 11.7462185,17.8420168 11.8537815,17.6033613 L12.9462185,15.1764706 L13.6487395,15.1764706 C13.9411765,15.1764706 14.2,14.9848739 14.2840336,14.702521 L14.5932773,13.6605042 L14.9731092,14.7361345 C15.0672269,14.9983193 15.3159664,15.1764706 15.5983193,15.1764706 L17.9445378,15.1764706 C18.3109244,15.1764706 18.6067227,14.8806723 18.6067227,14.5176471 C18.6067227,14.1546218 18.3142857,13.8554622 17.9478992,13.8521008 L17.9478992,13.8521008 Z M11.0537815,3.76134454 C10.687395,3.76134454 10.3915966,3.46890756 10.3882353,3.10252101 C10.3882353,2.7394958 10.6840336,2.44369748 11.0537815,2.44369748 L12.7243697,2.44369748 C13.0907563,2.44369748 13.3865546,2.7394958 13.3865546,3.10252101 C13.3865546,3.46554622 13.0907563,3.76134454 12.7243697,3.76134454 L11.0537815,3.76134454 Z" id="Historial-medico_3Masa"></path>
        </g>
    </g>
</svg>

<svg width="24" height="24" viewBox="0 0 24 24" xmlns="http://www.w3.org/2000/svg"><path d="M14.126 2.615c-.094-.299-.38-1.203-2.239-1.203-2.006 0-2.309 1.005-2.35 1.882l-.006.464c.014.32.027.783 2.356.783 2.33 0 2.347-.464 2.353-.736v-.434a2.882 2.882 0 00-.114-.756zm4.7-.897c1.024 0 1.922.732 1.922 1.566v18.773c0 .85-.88 1.567-1.923 1.567H4.953c-1.042 0-1.923-.72-1.923-1.567V3.281c0-.834.898-1.567 1.92-1.567h3.546C9.06.618 10.226 0 11.887 0c2.024 0 2.962.85 3.395 1.718h3.543zm-.878 12.134h-1.876l-.907-2.568a.666.666 0 00-1.264.034l-.75 2.537h-.635a.66.66 0 00-.605.39l-.42.931-1.15-5.727a.662.662 0 00-.618-.528.644.644 0 00-.67.464l-1.37 4.407h-1.86a.664.664 0 00-.665.658c0 .363.296.66.666.66H8.17c.289 0 .548-.189.635-.465l.743-2.386 1.049 5.203a.666.666 0 001.257.141l1.092-2.427h.703a.663.663 0 00.635-.473l.31-1.042.38 1.075c.093.262.342.44.624.44h2.347a.66.66 0 00.662-.658.666.666 0 00-.66-.666zm-6.894-10.09a.663.663 0 01-.666-.66c0-.363.296-.658.666-.658h1.67a.66.66 0 01.663.659.66.66 0 01-.663.658h-1.67z" fill="#5CB615" fill-rule="nonzero"/></svg>
